assets/icons/meter/2-filled.svg

<?xml version="1.0" encoding="UTF-8" standalone="no"?>
<svg
   viewBox="0 0 24 24"
   width="24"
   height="24"
   version="1.1"
   id="svg8"
   sodipodi:docname="3-filled.svg"
   inkscape:version="1.2 (1:1.2.1+202207142221+cd75a1ee6d)"
   xmlns:inkscape="http://www.inkscape.org/namespaces/inkscape"
   xmlns:sodipodi="http://sodipodi.sourceforge.net/DTD/sodipodi-0.dtd"
   xmlns="http://www.w3.org/2000/svg"
   xmlns:svg="http://www.w3.org/2000/svg"
   xmlns:rdf="http://www.w3.org/1999/02/22-rdf-syntax-ns#"
   xmlns:cc="http://creativecommons.org/ns#"
   xmlns:dc="http://purl.org/dc/elements/1.1/">
  <defs
     id="defs2" />
  <sodipodi:namedview
     id="base"
     pagecolor="#ffffff"
     bordercolor="#666666"
     borderopacity="1.0"
     inkscape:pageopacity="0.0"
     inkscape:pageshadow="2"
     inkscape:zoom="32"
     inkscape:cx="7.53125"
     inkscape:cy="12.125"
     inkscape:document-units="px"
     inkscape:current-layer="layer1"
     inkscape:document-rotation="0"
     showgrid="true"
     units="px"
     inkscape:snap-center="true"
     inkscape:window-width="1920"
     inkscape:window-height="1043"
     inkscape:window-x="0"
     inkscape:window-y="0"
     inkscape:window-maximized="1"
     inkscape:pagecheckerboard="0"
     inkscape:showpageshadow="2"
     inkscape:deskcolor="#d1d1d1">
    <inkscape:grid
       type="xygrid"
       id="grid833" />
    <inkscape:grid
       type="xygrid"
       id="grid846"
       dotted="true"
       spacingx="0.5"
       spacingy="0.5"
       empspacing="10" />
  </sodipodi:namedview>
  <metadata
     id="metadata5">
    <rdf:RDF>
      <cc:Work
         rdf:about="">
        <dc:format>image/svg+xml</dc:format>
        <dc:type
           rdf:resource="http://purl.org/dc/dcmitype/StillImage" />
      </cc:Work>
    </rdf:RDF>
  </metadata>
  <g
     inkscape:label="Calque 1"
     inkscape:groupmode="layer"
     id="layer1">
    <path
       id="path2747"
       style="color:#000000;fill:#808080;fill-rule:evenodd;stroke-linecap:round;stroke-linejoin:round"
       d="M 11 3 C 9.6340028 3.0710799 8.3456856 3.4356018 7.1914062 4.0253906 L 8.1835938 5.7421875 L 7.3164062 6.2421875 L 6.3261719 4.5253906 C 5.2137709 5.2504252 4.2621433 6.2020513 3.5371094 7.3144531 L 5.2539062 8.3046875 L 4.7539062 9.171875 L 3.0371094 8.1796875 C 2.4473205 9.3339661 2.0828018 10.622285 2.0117188 11.988281 L 4 11.988281 L 4 12.988281 L 2.0175781 12.988281 C 2.0886761 14.354069 2.4479962 15.643331 3.0371094 16.796875 L 4.7539062 15.804688 L 5.2539062 16.671875 L 3.5390625 17.662109 C 4.4381991 19.041215 5.6822188 20.175267 7.1542969 20.933594 A 0.50005 0.50005 0 0 0 7.3847656 20.988281 L 15.617188 20.988281 A 0.50005 0.50005 0 0 0 15.845703 20.933594 C 17.31738 20.175108 18.561707 19.041264 19.460938 17.662109 L 17.746094 16.671875 L 18.246094 15.804688 L 19.962891 16.796875 C 20.552218 15.643232 20.911289 14.354006 20.982422 12.988281 L 19 12.988281 L 19 11.988281 L 20.988281 11.988281 C 20.917201 10.622285 20.552679 9.3339661 19.962891 8.1796875 L 18.246094 9.171875 L 17.746094 8.3046875 L 19.462891 7.3144531 C 18.737855 6.2020523 17.786229 5.2504252 16.673828 4.5253906 L 15.683594 6.2421875 L 14.816406 5.7421875 L 15.808594 4.0253906 C 14.654314 3.4356018 13.365998 3.0710838 12 3 L 12 4.9882812 L 11 4.9882812 L 11 3 z M 4.390625 10.066406 L 10.269531 11.640625 A 1.5 1.5 0 0 1 11.894531 11.041016 A 1.5 1.5 0 0 1 12.205078 11.164062 A 1.5 1.5 0 0 1 12.955078 12.876953 A 1.5 1.5 0 0 1 11.117188 13.939453 A 1.5 1.5 0 0 1 10.009766 12.607422 L 4.1328125 11.03125 L 4.390625 10.066406 z " />
    <g
       id="layer9"
       label="status"
       style="display:inline;stroke-width:0.8"
       transform="matrix(0.33072916,0,0,0.33072916,-294.81205,62.363802)" />
    <g
       id="layer2"
       style="display:inline;stroke-width:0.8"
       transform="matrix(0.33072916,0,0,0.33072916,-215.10626,-59.0138)" />
    <g
       id="layer4"
       style="display:inline;stroke-width:0.8"
       transform="matrix(0.33072916,0,0,0.33072916,-215.10626,-59.0138)" />
    <g
       id="g1812"
       style="display:inline;stroke-width:0.8"
       transform="matrix(0.33072916,0,0,0.33072916,-215.10626,-59.0138)" />
    <g
       id="g6217"
       style="display:inline;stroke-width:0.8"
       transform="matrix(0.33072916,0,0,0.33072916,-215.10626,-59.0138)" />
    <g
       id="layer3"
       style="display:inline;stroke-width:0.8"
       transform="matrix(0.33072916,0,0,0.33072916,-215.10626,-59.0138)" />
    <g
       id="layer1-6"
       style="display:inline;stroke-width:0.8"
       transform="matrix(0.33072916,0,0,0.33072916,-215.10626,-59.0138)" />
  </g>
</svg>

<svg width="24" height="24" xmlns="http://www.w3.org/2000/svg"><path style="color:#000;fill:gray;stroke-linecap:round;stroke-linejoin:round" d="M11 3a9.43 9.43 0 0 0-3.809 1.025l.993 1.717-.868.5-.99-1.717a9.57 9.57 0 0 0-2.789 2.79l1.717.99-.5.867-1.717-.992a9.43 9.43 0 0 0-1.025 3.808H4v1H2.018a9.434 9.434 0 0 0 1.02 3.809l1.716-.992.5.867-1.715.99a9.54 9.54 0 0 0 3.615 3.272.5.5 0 0 0 .23.054h8.233a.5.5 0 0 0 .229-.054 9.544 9.544 0 0 0 3.615-3.272l-1.715-.99.5-.867 1.717.992a9.432 9.432 0 0 0 1.02-3.809H19v-1h1.988a9.43 9.43 0 0 0-1.025-3.808l-1.717.992-.5-.867 1.717-.99a9.57 9.57 0 0 0-2.79-2.79l-.99 1.717-.867-.5.993-1.717A9.43 9.43 0 0 0 12 3v1.988h-1V3zm-6.61 7.066 5.88 1.575a1.5 1.5 0 0 1 1.625-.6 1.5 1.5 0 0 1 .31.123 1.5 1.5 0 0 1 .75 1.713 1.5 1.5 0 0 1-1.838 1.062 1.5 1.5 0 0 1-1.107-1.332l-5.877-1.576.258-.965z"/></svg>
